app/assets/icons/polaris/MaximizeMajor.svg

<svg viewBox="0 0 20 20" xmlns="http://www.w3.org/2000/svg"><path d="M9 5a1 1 0 1 0 0 2h2.586l-3.293 3.293a1 1 0 1 0 1.414 1.414l3.293-3.293v2.586a1 1 0 1 0 2 0v-5c0-.025 0-.05-.003-.075a1 1 0 0 0-.997-.925h-5zm-8 9.5a1.5 1.5 0 0 1 1.5-1.5h3a1.5 1.5 0 0 1 1.5 1.5v3a1.5 1.5 0 0 1-1.5 1.5h-3a1.5 1.5 0 0 1-1.5-1.5v-3z"/><path d="M2.5 1a1.5 1.5 0 0 0-1.5 1.5v8.5h2v-8h14v14h-8v2h8.5a1.5 1.5 0 0 0 1.5-1.5v-15a1.5 1.5 0 0 0-1.5-1.5h-15z"/></svg>

<svg viewBox="0 0 20 20" xmlns="http://www.w3.org/2000/svg"><path d="M9 5a1 1 0 1 0 0 2h2.586l-3.293 3.293a1 1 0 1 0 1.414 1.414L13 8.414V11a1 1 0 1 0 2 0V6c0-.025 0-.05-.003-.075A1 1 0 0 0 14 5H9zm-8 9.5A1.5 1.5 0 0 1 2.5 13h3A1.5 1.5 0 0 1 7 14.5v3A1.5 1.5 0 0 1 5.5 19h-3A1.5 1.5 0 0 1 1 17.5v-3z"/><path d="M2.5 1A1.5 1.5 0 0 0 1 2.5V11h2V3h14v14H9v2h8.5a1.5 1.5 0 0 0 1.5-1.5v-15A1.5 1.5 0 0 0 17.5 1h-15z"/></svg>
